X:1
T: Mr. J.S. Skinner (Teacher of Dancing, Banchory)
C:Alexander Walker
R:Strathspey
Q: 128
K:G
M:4/4
L:1/16
|:D2|G3A GE3 DG,3 B,4|DG,3 B,G,3 EA,3 CE3|G3A GE3 DG,3 B,4|^CE3 A3G FD3 EF3|
G3B AGFE DG,3 B,4|DG,3 EDCB, EA,3 CE3|GB3 FA3 EG3 D3B,|C3E D3c BG3 G2e2|
dB3 g3d e3d eg3|d3B cBAG FA3 A3e|dB3 g3B dg3 Bg3|db3 a3f g4 g3e|
dg3 Bg3 ca3 Bg3|d3B cBAG A2F2 D2C2|B,G3 dG3 cBAG Fd3|BG3 A3F G4 G2:|
